X:1
T:What a Beau My Granny Was
M:2/2
L:1/8
Q:180
S:Howard Mitchell <howard:stradivarious.co.uk> tradtunes 2005-5-31
B:the William Mittel tune book
C:Trad. arr. P J Headford
K:D
D4 F2G2 | A4B2c2 | d2ef agfe | dfed dcBA |
D4 F2G2 | A4B2c2 | d2ef agfe | dfec d4 :|
f2 fa gfed | d2 de dcBA | fd fa gfed | bagf f2 e2 |
fdfa gfed | dfed dcBA | D2 FA dfaf | d2c2 d4 :|
